X: 33905
T: Red Planet, The
R: slide
M: 12/8
K: Dmajor
|:d2 a gfd =cBc ABc|d2 a gfd =cBc d2 A|
d2 a gfd =c2 d A2 B|c2 d e2 f edc d2 z:|
|:cde def gag fed|cde dcA GFG A3|
cde dcA gag fef|gfg agf A2 c d3:|

